X:169
T:B169-  Greensleeves
S:(2nd/6)
Q:1/4=120
L:1/4
M:C
K:Gm
B2dB|cAF2|B2GG|A^FD2|B3/2c/2dB|cAFF|BGA^F|G2G2|\
f2fd|cAF2|B3/2B/2GG|AFD2|f2fd|cAFF|BGA^F|GGG2|]
